img/link_arrow.svg

<svg width="60" height="12" viewBox="0 0 60 12" fill="none" xmlns="http://www.w3.org/2000/svg">
<path d="M60 6.00498L58.5909 7.41404L54.3538 11.6512L52.9347 10.2422L56.1726 7.00432H0V5.00565H56.1825L52.9447 1.76781L54.3538 0.348755L58.5909 4.58593L60 6.00498Z" fill="white"/>
</svg>

<svg width="60" height="12" fill="none" xmlns="http://www.w3.org/2000/svg"><path d="M60 6.005l-1.41 1.409-4.236 4.237-1.42-1.409 3.239-3.238H0V5.006h56.182l-3.237-3.238 1.409-1.42 4.237 4.238L60 6.005z" fill="#fff"/></svg>
